X: 05061
T: MISS BROWN'S JIG
C: Bob McQuillen 27 Nov 80
B: Bob's Note Book 5 #61
%R: jig
Z: 2021 John Chambers <jc:trillian.mit.edu>
M: 6/8
L: 1/8
K: D
F2G \
| AFD GAB | AFD D2e | fed dcB | A3-A FG || AFD GAB | AFA dcd | Bcd e2f | e3-e2f |
| gfg efg | afd dfa | gfe fed | ecA AFG || AFD DFA | dcB Ade | fgf edc | d3 |]
[| d2e \
| fgf efe | dcd BAG | FAd cBA | B2d Bde || fgf ede | fdB B2A | FEF AFA | B3-B2b |
| baf afd | def ecA | Bcd efg | f2f edc || Bcd cde | fab afe | ded cBA | B3 |]
%%begintext align
%% Carolyn Brown
%% is a real sweetheart, and we're always so
%% glad whenever she's around. Here's a tune
%% for you, Carolyn, with much love -
%%endtext

%%sep 1 1 500

%%sep 1 1 500

